static/img/icons/social/icon-fb.svg

<svg fill="none" height="25" viewBox="0 0 25 25" width="25" xmlns="http://www.w3.org/2000/svg"><path d="m1.38855 0h22.22295c.3692 0 .7202.146484.9826.40741.2594.259399.4059.6134.4059.98114v22.22295c0 .1602-.0275.3173-.0793.4653-.0702.1923-.1801.3693-.3266.5158-.1312.1312-.2868.2334-.4577.3021-.1648.0687-.3418.1053-.5249.1053h-6.3508v-9.6741h3.2593l.4852-3.7842h-3.7445v-2.40931c0-1.08643.3052-1.83259 1.8708-1.84021h1.9928v-3.36152c-.9735-.10833-1.944-.15869-2.9084-.14953-.3601 0-.708.02746-1.0376.0824-2.304.37994-3.8116 2.06604-3.8238 4.86907v.03815l-.0061 2.77095-3.241.0062v3.7857h3.2471v9.6664h-11.96595c-.36926 0-.720215-.1465-.982666-.4074-.2594-.2594-.405884-.6134-.405884-.9811v-22.22295c0-.36774.146484-.721741.405884-.98114.262451-.260926.613406-.40741.982666-.40741z" fill="#3a3c42"/></svg>

<svg alt="facebook" width="25" height="25" viewBox="0 0 25 25" fill="none" xmlns="http://www.w3.org/2000/svg">
<path d="M1.38855 0H23.6115C23.9807 0 24.3317 0.146484 24.5941 0.40741C24.8535 0.666809 25 1.02081 25 1.38855V23.6115C25 23.7717 24.9725 23.9288 24.9207 24.0768C24.8505 24.2691 24.7406 24.4461 24.5941 24.5926C24.4629 24.7238 24.3073 24.826 24.1364 24.8947C23.9716 24.9634 23.7946 25 23.6115 25H17.2607V15.3259H20.52L21.0052 11.5417H17.2607V9.13239C17.2607 8.04596 17.5659 7.2998 19.1315 7.29218H21.1243V3.93066C20.1508 3.82233 19.1803 3.77197 18.2159 3.78113C17.8558 3.78113 17.5079 3.80859 17.1783 3.86353C14.8743 4.24347 13.3667 5.92957 13.3545 8.7326C13.3545 8.74481 13.3545 8.75854 13.3545 8.77075L13.3484 11.5417L10.1074 11.5479V15.3336H13.3545V25H1.38855C1.01929 25 0.668335 24.8535 0.405884 24.5926C0.146484 24.3332 0 23.9792 0 23.6115V1.38855C0 1.02081 0.146484 0.666809 0.405884 0.40741C0.668335 0.146484 1.01929 0 1.38855 0Z" fill="#3A3C42"/>
</svg>
